**kern
*clefG2
*k[b-e-a-d-g-c-]
*M12/8
=1-
(4a-
2g-)
16r
2g-
16f
16f
16g#
=2
4a#
4a#
2b-
4b-
16a#
8g-
16a#
=3
1b-
2cc-
=4
8b-
4cc-
8b-
8.cc-
4cc-
(2cc-
16ddn)
=5
4cc-
8dd-
4dd-
16dd-
(16dd-
2ee-)
16ff
(16gg-
16ff)
16ee-
=6
1ff
16ee-
16ff
8ee-
4dd-
=7
2dd-
2dd-
4dd-
4dd-
=8
2een
8dd-
16dd-
8r
8een
(16dd-
2ee#)
=9
2ee-
2.r
8ddn
16ddn
16ee-
=10
16ff-
16gg-
8r
16gg-
8gg-
1gg-
16ff-
=11
*_